X: 1179
T: An Coileach Ag Fogairt An Lae
R: jig
M: 6/8
K: Gmajor
|:D|GAB {c}BAG|d3 {^e}d2B|GAB {B}BAG|A3 {B}A2D|
GAB {B} BAG|Bcd (3efge|dBG {c}AFD|1 G3 {A}G2:|2 G3 {A}GBd||
|:vg.d.d v g.d.d|c{{d}c{^c}c {d}c2d|vg.d.d vg.d.d|~A3 A2d|
vg.d.d vg.d.d|c3 e(3gfe|dBG {c}AFD|1 G3 GBd:|2 G3 {A}G2||

